Origami/64x64/apps/manjaro-welcome.svg

<svg width="64" height="64" version="1" xmlns="http://www.w3.org/2000/svg">
 <path d="m21 17v2h18v-2h-18zm-14 8v2h14v-2h-14zm0 34v2h14v-2h-14zm18 0v2h14v-2h-14zm18 0v2h14v-2h-14z" style="opacity:.2"/>
 <path d="m7 4v22h14v-8h18v-14h-20.8zm36 0v56h14v-56zm-18 18v38h14v-38zm-18 8v30h14v-30z" style="fill:#35bf5c"/>
 <path d="m7 4v1h32v-1h-32zm36 0v1h14v-1h-14zm-18 18v1h14v-1h-14zm-18 8v1h14v-1h-14z" style="fill:#ffffff;opacity:.2"/>
</svg>

<svg xmlns="http://www.w3.org/2000/svg" width="64" height="64" version="1">
 <path style="opacity:0.2" d="m 21,17 0,2 18,0 0,-2 -18,0 z m -14,8 0,2 14,0 0,-2 -14,0 z m 0,34 0,2 14,0 0,-2 -14,0 z m 18,0 0,2 14,0 0,-2 -14,0 z m 18,0 0,2 14,0 0,-2 -14,0 z"/>
 <path style="fill:#35bf5c" d="m 7,4 0,22 14,0 0,-8 18,0 0,-14 -20.8,0 z m 36,0 0,56 14,0 0,-56 z m -18,18 0,38 14,0 0,-38 z m -18,8 0,30 14,0 0,-30 z"/>
 <path style="opacity:0.2;fill:#ffffff" d="M 7 4 L 7 5 L 39 5 L 39 4 L 7 4 z M 43 4 L 43 5 L 57 5 L 57 4 L 43 4 z M 25 22 L 25 23 L 39 23 L 39 22 L 25 22 z M 7 30 L 7 31 L 21 31 L 21 30 L 7 30 z"/>
</svg>
